icon/pk/external-transmission.svg

<svg viewBox="0 0 48 48" fill="none" xmlns="http://www.w3.org/2000/svg" height="1em" width="1em">
  <path d="M30 25L42 25" stroke="black" stroke-width="4" stroke-linecap="round" stroke-linejoin="round"/>
  <path d="M36 19L42 25L36 31" stroke="black" stroke-width="4" stroke-linecap="round" stroke-linejoin="round"/>
  <path d="M21 6V26C21 32.7391 14.8348 39.5668 9 42" stroke="black" stroke-width="4" stroke-linecap="round" stroke-linejoin="round"/>
  <path d="M42 14V9C42 7.34315 40.6569 6 39 6H9C7.34315 6 6 7.34315 6 9V39C6 40.6569 7.34315 42 9 42H39C40.6569 42 42 40.6569 42 39V35.5" stroke="black" stroke-width="4" stroke-linecap="round" stroke-linejoin="round"/>
</svg>

<svg width="48" height="48" fill="none" xmlns="http://www.w3.org/2000/svg"><path d="M30 25h12M36 19l6 6-6 6M21 6v20c0 6.74-6.165 13.567-12 16" stroke="#000" stroke-width="4" stroke-linecap="round" stroke-linejoin="round"/><path d="M42 14V9a3 3 0 0 0-3-3H9a3 3 0 0 0-3 3v30a3 3 0 0 0 3 3h30a3 3 0 0 0 3-3v-3.5" stroke="#000" stroke-width="4" stroke-linecap="round" stroke-linejoin="round"/></svg>
